X:28
T: S IST GEWISS UND KEIN GEDICHT
N: F0087
O: Europa, Mitteleuropa, Deutschland
R: Moral - Lied, Misstrauen gegen Frauen
M: 3/4
L: 1/16
K: G
D3D | G6G2F2G2 | A4z4
G2B2 | d4B4A2B2 | G4z4
G2B2 | d4d4A2c2 | B2A2G4
G2B2 | d4d4A2c2 | B2A2G4
D3D | G6G2F2G2 | A4z2
D2G2B2 | d4B4A2B2 | G4z4

